Newaita-dark/actions/22/distribute-vertical-equal.svg

<?xml version="1.0" encoding="UTF-8"?>
<svg xmlns="http://www.w3.org/2000/svg" xmlns:xlink="http://www.w3.org/1999/xlink" width="22pt" height="22pt" viewBox="0 0 22 22" version="1.1">
<g id="surface1">
<path style=" stroke:none;fill-rule:evenodd;fill:rgb(14.901961%,77.64706%,85.490197%);fill-opacity:1;" d="M 20.222656 4.566406 C 20.222656 4.394531 20.082031 4.25 19.90625 4.25 L 16.101562 4.25 C 15.863281 4.25 15.710938 4.507812 15.824219 4.71875 L 17.726562 6.945312 C 17.925781 7.183594 18.082031 7.183594 18.28125 6.945312 L 20.183594 4.71875 C 20.210938 4.671875 20.222656 4.621094 20.222656 4.566406 Z M 20.222656 4.566406 "/>
<path style=" stroke:none;fill-rule:evenodd;fill:rgb(14.901961%,77.64706%,85.490197%);fill-opacity:1;" d="M 20.222656 17.605469 C 20.222656 17.78125 20.082031 17.921875 19.90625 17.921875 L 16.101562 17.921875 C 15.863281 17.921875 15.710938 17.664062 15.824219 17.453125 L 17.726562 15.230469 C 17.925781 14.992188 18.082031 14.992188 18.28125 15.230469 L 20.183594 17.453125 C 20.210938 17.5 20.222656 17.554688 20.222656 17.605469 Z M 20.222656 17.605469 "/>
<path style=" stroke:none;fill-rule:nonzero;fill:rgb(74.117649%,74.117649%,74.117649%);fill-opacity:1;" d="M 17.949219 8.554688 C 17.949219 8.929688 17.644531 9.234375 17.265625 9.234375 L 13.835938 9.234375 C 13.769531 9.257812 13.699219 9.269531 13.628906 9.269531 L 7.714844 9.269531 C 7.644531 9.269531 7.574219 9.257812 7.507812 9.234375 L 2.257812 9.234375 C 1.878906 9.234375 1.574219 8.929688 1.574219 8.554688 C 1.574219 8.175781 1.878906 7.871094 2.257812 7.871094 L 7.035156 7.871094 L 7.035156 2.640625 C 7.035156 2.261719 7.335938 1.957031 7.714844 1.957031 L 13.628906 1.957031 C 14.003906 1.957031 14.308594 2.261719 14.308594 2.640625 L 14.308594 7.871094 L 17.265625 7.871094 C 17.644531 7.871094 17.949219 8.175781 17.949219 8.554688 Z M 12.945312 7.871094 L 12.945312 3.777344 C 12.945312 3.527344 12.742188 3.324219 12.492188 3.324219 L 8.851562 3.324219 C 8.601562 3.324219 8.398438 3.527344 8.398438 3.777344 L 8.398438 7.871094 Z M 12.945312 7.871094 "/>
<path style=" stroke:none;fill-rule:nonzero;fill:rgb(74.117649%,74.117649%,74.117649%);fill-opacity:1;" d="M 17.949219 13.589844 C 17.949219 13.210938 17.644531 12.90625 17.265625 12.90625 L 13.835938 12.90625 C 13.769531 12.886719 13.699219 12.875 13.628906 12.875 L 4.53125 12.875 C 4.460938 12.875 4.390625 12.886719 4.324219 12.90625 L 2.257812 12.90625 C 1.878906 12.90625 1.574219 13.210938 1.574219 13.589844 C 1.574219 13.964844 1.878906 14.269531 2.257812 14.269531 L 3.851562 14.269531 L 3.851562 19.5 C 3.851562 19.878906 4.152344 20.183594 4.53125 20.183594 L 13.628906 20.183594 C 14.003906 20.183594 14.308594 19.878906 14.308594 19.5 L 14.308594 14.269531 L 17.265625 14.269531 C 17.644531 14.269531 17.949219 13.964844 17.949219 13.589844 Z M 12.945312 14.269531 L 12.945312 18.363281 C 12.945312 18.617188 12.742188 18.820312 12.492188 18.820312 L 5.667969 18.820312 C 5.417969 18.820312 5.21875 18.617188 5.214844 18.363281 L 5.214844 14.269531 Z M 12.945312 14.269531 "/>
</g>
</svg>

<svg xmlns="http://www.w3.org/2000/svg" width="22pt" height="22pt" viewBox="0 0 22 22"><path d="M20.223 4.566a.318.318 0 0 0-.317-.316h-3.804a.318.318 0 0 0-.278.469l1.903 2.226c.199.239.355.239.554 0l1.903-2.226a.295.295 0 0 0 .039-.153zm0 0M20.223 17.605c0 .176-.141.317-.317.317h-3.804a.318.318 0 0 1-.278-.469l1.903-2.223c.199-.238.355-.238.554 0l1.903 2.223c.027.047.039.102.039.152zm0 0" fill-rule="evenodd" fill="#26c6da"/><path d="M17.95 8.555c0 .375-.305.68-.684.68h-3.43a.623.623 0 0 1-.207.035H7.715a.623.623 0 0 1-.207-.036h-5.25a.681.681 0 1 1 0-1.363h4.777v-5.23c0-.38.3-.684.68-.684h5.914c.375 0 .68.305.68.684v5.23h2.957c.379 0 .683.305.683.684zm-5.005-.684V3.777a.453.453 0 0 0-.453-.453h-3.64a.453.453 0 0 0-.454.453v4.094zm0 0M17.95 13.59a.682.682 0 0 0-.684-.684h-3.43a.738.738 0 0 0-.207-.031H4.53c-.07 0-.14.012-.207.031H2.258a.682.682 0 1 0 0 1.364h1.594v5.23c0 .379.3.684.68.684h9.097c.375 0 .68-.305.68-.684v-5.23h2.957a.681.681 0 0 0 .683-.68zm-5.005.68v4.093a.454.454 0 0 1-.453.457H5.668a.457.457 0 0 1-.453-.457V14.27zm0 0" fill="#bdbdbd"/></svg>
